!!!OTL: ES KAMEN DREI SCHWARZE RABEN
!!!ARE: Europa, Mitteleuropa, Deutschland, Niederrhein
!!!SCT: E0045
!!!YEM: Copyright 1995, estate of Helmut Schaffrath.
**kern
*ICvox
*Ivox
*M3/8
*k[b-]
*F:
{8c
=1
8.f
16f
8f
=2
8a
8f
8a
=3
4cc
8b-
=4
4a}
{8cc
=5
8dd
8ff
8dd
=6
8cc
8a
16f
16a
=7
4cc
8b-
=8
4a}
{16f
16a
=9
8.cc
16a
16cc
16a
=10
4g}
{16f
16a
=11
8.cc
16a
16cc
16a
=12
4g}
{16f
16a
=13
8.cc
16dd
8cc
=14
8f
8a
8cc
=15
8cc
8b-
8g
=16
4f}
==
!!!AGN: erzaehlendes Volks - Lied, Sage, Mord, Ballade ?
!!!ONB: ESAC (Essen Associative Code) Database: ERK1
!!!AMT: simple triple
!!!AIN: vox
!!!EED: Helmut Schaffrath
!!!EEV: 1.0
*-
